X: 7
T: DEEP PURPLE
C: P. de Rose
M: C|
L: 1/4
K: F
 CD | "F"c2 CD | "Cdim"_E2 C^C | "Gm"DG Bd |
 "C7"c2 ^GA |"F"gf cA | "Cm"G^G Ad | "D7"D4- |
 D2 ^CD |"Gm"c2 =B_B | "Bbm"A_A G2 | "F"G2 _GF |
[1 "Ddim"E_E D2 | "C7"D2 _DC | G2 "C"^Gd | "F"c4- | cz :|
[2 "Ddim"e_e d2 | "Gm7"d2 _dc | "C7"G2 ^GA | "F"c4- | cz |]
